X:1
T:Gaudeamus igitur
T:Gaudeamus igitur
T:Arr: Francisco Lamolda García 
C:FLG
%%score [ ( 1 2 ) ( 3 4 ) ]
L:1/8
Q:1/4=92
M:3/4
K:C
V:1 treble nm="Piano"
V:2 treble 
V:3 bass nm="Piano"
V:4 bass 
V:1
|:!f! c>G G2 c2 | A>A A4 | B>c d2 B2 | ce c4 | c>G G2 c2 | A>A A4 | B>c d2 B2 | ce c4 || %8
w: Gau- de- a- mus|I- gi- tur,|ju- ve- nes du,|su _ mus.|Gau- de- a- mus|I- gi- tur,|ju- ve- nes dum|su _ mus.|
w: U- bi sunt qui|an- te- nos|in mun- do fu-|e _ re.|U- bi sunt qui|an- te- nos|in mun- do fu-|e _ re.|
!mp! B>c d2 d2 | ec d2 d2 | B>c d2 d2 | ec d2 d2 |!<(! c>B Af ed!<)! |!f! (e2 d2) c2 | c>B Af ed | %15
w: Post ju- cun- dam|ju- ven- tu- tem,|post mo- les- tam|se- nec- tu- tem.|Nos ha- be- * bit _|hu _ mus.|Nos ha- be _ bit _|
w: Va- di- te ad|su- pre- ros _|tran- si- te ad|in- fe- ros _|U- bi jam _ fu _|e _ re.|U- bi jam _ fu _|
 (e2 d4) |[M:2/4] c4 :|[M:3/4] c>G G2 c2 | A>A A4 | B>c d2 B2 | ce c4 | c>G G2 c2 | A>A A4 | %23
w: hu _|mus.|Vi- vat A- ca-|de- mi- a,|vi- vant Pro- fes-|so _ res.|Vi- vat A- ca-|de- mi- a,|
w: e _|re.|||||||
 B>c d2 B2 | ce c4 ||!mp! B>c d2 d2 | ec d2 d2 | B>c d2 d2 | ec d2 d2 |!<(! c>B A2 ed!<)! | %30
w: vi- vant Pro- fes-|so _ res.|Vi- vat mem- brum|quod li- bet _|Vi- vant mem- bra|quae- li- bet _|Sem- per sint in _|
w: |||||||
!f! (e2 d2) c2 |!<(! c>B Af ed!<)! |"^poco rit." e6 | d6 |"^A tpo." c6 |] %35
w: flo _ re,|sem- per sint _ in _|flo|_|re!|
w: |||||
V:2
|: G>E E2 G2 | F>F F4 | F>E F2 G2 | G2 G4 | G>E E2 G2 | F>F F4 | F>E F2 G2 | G2 G4 || G>A B2 B2 | %9
 cG B2 B2 | G>A B2 B2 | cG B2 B2 | G>G F2 A2 | (G2 F2) E2 | G>G F2 A2 | (c2 B4) |[M:2/4] G4 :| %17
[M:3/4] G>E E2 G2 | F>F F4 | F>E F2 G2 | G2 G4 | G>E E2 G2 | F>F F4 | F>E F2 G2 | G2 G4 || %25
 G>A B2 B2 | cG B2 B2 | G>A B2 B2 | cG B2 B2 | G>G F2 A2 | (G2 F2) E2 | G>G F2 A2 | c6 | B6 | G6 |] %35
V:3
|:!f! E>C C2 E2 | C>C C4 | D>C D2 D2 | EG E4 | E>C C2 E2 | C>C C4 | D>C D2 D2 | EG E4 || %8
!mp! G,>G, G,2 D2 | G2 G2 G2 | G,>G, G,2 D2 | G2 G2 G2 |!<(! A,>B, CF ED!<)! |!f! (E2 D2) C2 | %14
 A,>B, CF ED | (G2 F4) |[M:2/4] E4 :|[M:3/4] E>C C2 E2 | C>C C4 | D>C D2 D2 | EG E4 | E>C C2 E2 | %22
 C>C C4 | D>C D2 D2 | EG E4 ||!mp! G,>G, G,2 D2 | G2 G2 G2 | G,>G, G,2 D2 | G2 G2 G2 | %29
!<(! A,>B, CF ED!<)! |!f! (E2 D2 C2) |!<(! A,>B, CF ED!<)! | G6 | D6 | E6 |] %35
V:4
|: C,>E, E,2 C,2 | F,>F, F,4 | G,>G, G,2 G,,2 | C,2 C,4 | C,>E, E,2 C,2 | F,>F, F,4 | %6
w: ||||||
 G,,>G,, G,,2 G,2 | C,2 C,4 || G,>G, G,2 G,2 | C,E, G,2 G,2 | G,>G, G,2 G,2 | C,E, G,2 G,2 | %12
w: ||||||
 E,>E, F,2 D,F, | G,3 ^G, A,2 | E,>E, F,2 D,F, | (G,2 G,,4) |[M:2/4] C,4 :|[M:3/4] C,>E, E,2 C,2 | %18
w: ||||||
 F,>F, F,4 | G,>G, G,2 G,,2 | C,2 C,4 | C,>E, E,2 C,2 | F,G, F,E, D,C, | G,,>G,, G,,2 G,2 | %24
w: ||||de _ mi _ a _|_ _ _ _|
 C,2 C,4 || G,>G, G,2 G,2 | C,E, G,2 G,2 | G,>G, G,2 G,2 | C,E, G,2 G,2 | E,>E, F,2 D,F, | %30
w: ||||||
 G,2 ^G,2 A,2 | E,>E, F,2 D,F, | G,6 | G,,6 | C,6 |] %35
w: |||||

